packages/web-icons/svgs/logo_paper_bold_2.svg

<svg viewBox="0 0 195 50" xmlns="http://www.w3.org/2000/svg" class="ridi_icon"><path d="M50.6.1L31.1 47.9l-1 2h8l4.7-11.5h22.8l4.2 10.5.3 1H78L57.7.1h-7.1zm-5.3 31.7l8.8-22 8.8 22H45.3zm-9.8-16.5C35.5 6.4 29.1.1 19.9.1H.8V50h7V30.5h12.1c9.2-.1 15.6-6.4 15.6-15.2zM7.8 23.8v-17h11.7c5.3 0 8.8 3.3 8.8 8.5s-3.5 8.5-8.8 8.5H7.8zM180.3 30c5.8-1.1 11.8-5.5 11.8-14.8 0-4.4-1.6-8.3-4.6-11.3-3-2.5-6.9-3.9-11.1-3.9h-19v49.9h7V30.4h8.2l13.1 19.3h8.5L180.3 30zm-15.9-6.3V6.6H176c5.4 0 8.9 3.3 8.9 8.5 0 5.1-3.6 8.6-8.9 8.6h-11.6zm-45.5 26.2h32.8v-6.6h-25.8V27.7h25.2V21h-25.2V6.6h25.8V.1h-32.8zM99.1.1H80V50h7V30.5h12c9.2 0 15.6-6.3 15.6-15.2.1-4.2-1.4-8-4.1-10.8-2.8-2.8-6.9-4.4-11.4-4.4zm-.4 23.7H87v-17h11.7c5.3 0 8.8 3.3 8.8 8.5s-3.5 8.5-8.8 8.5z"/></svg>

<?xml version="1.0" encoding="UTF-8"?>
<svg width="195px" height="50px" viewBox="0 0 195 50" version="1.1" xmlns="http://www.w3.org/2000/svg">
  <!-- Generator: Sketch 41.2 (35397) - http://www.bohemiancoding.com/sketch -->
  <title>logo_paper_bold_2</title>
  <desc>Created with Sketch.</desc>
  <defs></defs>
  <g id="Page-1" stroke="none" stroke-width="1" fill="none" fill-rule="evenodd">
    <g id="logo_paper_bold_2" fill="#000000">
      <g id="Layer_1">
        <g id="Group">
          <path d="M50.6,0.1 L31.1,47.9 L30.1,49.9 L38.1,49.9 L42.8,38.4 L65.6,38.4 L69.8,48.9 L70.1,49.9 L78,49.9 L57.7,0.1 L50.6,0.1 Z M45.3,31.8 L54.1,9.8 L62.9,31.8 L45.3,31.8 Z" id="Shape"></path>
          <path d="M35.5,15.3 C35.5,6.4 29.1,0.1 19.9,0.1 L0.8,0.1 L0.8,50 L7.8,50 L7.8,30.5 L19.9,30.5 C29.1,30.4 35.5,24.1 35.5,15.3 Z M7.8,23.8 L7.8,6.8 L19.5,6.8 C24.8,6.8 28.3,10.1 28.3,15.3 C28.3,20.5 24.8,23.8 19.5,23.8 L7.8,23.8 Z" id="Shape"></path>
          <path d="M180.3,30 C186.1,28.9 192.1,24.5 192.1,15.2 C192.1,10.8 190.5,6.9 187.5,3.9 C184.5,1.4 180.6,-1.77635684e-15 176.4,-1.77635684e-15 L157.4,-1.77635684e-15 L157.4,49.9 L164.4,49.9 L164.4,30.4 L172.6,30.4 L185.7,49.7 L194.2,49.7 L180.3,30 Z M164.4,23.7 L164.4,6.6 L176,6.6 C181.4,6.6 184.9,9.9 184.9,15.1 C184.9,20.2 181.3,23.7 176,23.7 L164.4,23.7 Z" id="Shape"></path>
          <polygon id="Shape" points="118.9 49.9 151.7 49.9 151.7 43.3 125.9 43.3 125.9 27.7 151.1 27.7 151.1 21 125.9 21 125.9 6.6 151.7 6.6 151.7 0.1 118.9 0.1"></polygon>
          <path d="M99.1,0.1 L80,0.1 L80,50 L87,50 L87,30.5 L99,30.5 C108.2,30.5 114.6,24.2 114.6,15.3 C114.7,11.1 113.2,7.3 110.5,4.5 C107.7,1.7 103.6,0.1 99.1,0.1 Z M98.7,23.8 L87,23.8 L87,6.8 L98.7,6.8 C104,6.8 107.5,10.1 107.5,15.3 C107.5,20.5 104,23.8 98.7,23.8 Z" id="Shape"></path>
        </g>
      </g>
    </g>
  </g>
</svg>
